X:63
T:Fiddlin' Jam Session Reel
R:reel
C:Bruce Osborne - Dec. 2002
Z:abc by bosborne@kos.net
M:2/4
L:1/8
K:Eb
G,/A,/|B,B,/E/ G/E/B,/E/|G/E/B/E/ c/E/B/E/|FF/G/ A/F/D/F/|c/B/B/=A/ B/c/G,/A,/|\
B,B,/E/ G/E/B,/E/|G/E/B/E/ c/E/B/E/|FF/G/ A/F/D/F/|E/G/F/D/ E:|
|:G/A/|BB/c/ B/G/E/F/|G/A/G/F/ GB/e/|dd/e/ d/c/B/F/|E/D/E/F/ GG/A/|\
BB/c/ B/G/E/F/|G/A/G/F/ GB/e/|dd/e/ d/c/B/F/|E/G/F/D/ E:|
